docs/.vitepress/assets/svg/translate.svg

<?xml version="1.0" standalone="no"?><!DOCTYPE svg PUBLIC "-//W3C//DTD SVG 1.1//EN" "http://www.w3.org/Graphics/SVG/1.1/DTD/svg11.dtd"><svg t="1687672397208" class="icon" viewBox="0 0 1024 1024" version="1.1" xmlns="http://www.w3.org/2000/svg" p-id="1575" xmlns:xlink="http://www.w3.org/1999/xlink" width="16" height="16"><path d="M128 42.666667C80.64 42.666667 42.666667 80.64 42.666667 128L42.666667 725.333333C42.666667 772.693333 80.64 810.666667 128 810.666667L640 810.666667 384 42.666667 128 42.666667M526.506667 213.333333 554.666667 298.666667 896 298.666667 896 896 528.213333 896 555.946667 981.333333 896 981.333333C943.36 981.333333 981.333333 943.36 981.333333 896L981.333333 298.666667C981.333333 251.306667 943.36 213.333333 896 213.333333L526.506667 213.333333M301.226667 252.16C348.16 252.16 387.84 269.226667 417.28 298.666667L369.493333 342.613333C357.12 330.24 335.786667 316.16 301.226667 316.16 241.92 316.16 194.56 364.8 194.56 424.106667 194.56 483.413333 241.92 533.333333 301.226667 533.333333 370.346667 533.333333 395.093333 483.413333 400.213333 458.666667L301.226667 458.666667 301.226667 400.213333 464.213333 400.213333C466.346667 410.026667 466.773333 416.853333 466.773333 429.226667 466.773333 528.213333 400.213333 597.333333 301.226667 597.333333 205.226667 597.333333 128 520.106667 128 424.106667 128 327.68 205.226667 252.16 301.226667 252.16M682.666667 426.666667 682.666667 469.333333 611.84 469.333333 625.493333 512 768 512C756.48 538.026667 752.213333 561.92 717.226667 602.88 700.16 582.826667 686.506667 565.333333 682.666667 554.666667L640 554.666667C645.12 573.013333 666.453333 601.6 692.053333 630.613333 686.506667 636.16 678.826667 643.413333 672 649.386667L683.946667 685.226667C694.613333 675.84 705.28 666.026667 715.946667 656.213333 759.466667 701.866667 805.546667 744.106667 805.546667 744.106667L829.44 718.506667C829.44 718.506667 783.786667 673.706667 742.826667 629.333333 769.706667 599.466667 793.6 563.2 810.666667 512L853.333333 512 853.333333 469.333333 725.333333 469.333333 725.333333 426.666667 682.666667 426.666667Z" p-id="1576"></path></svg>

<svg xmlns="http://www.w3.org/2000/svg" width="16" height="16" class="icon" viewBox="0 0 1024 1024"><path d="M128 42.667A85.038 85.038 0 0 0 42.667 128v597.333A85.038 85.038 0 0 0 128 810.667h512l-256-768H128m398.507 170.666 28.16 85.334H896V896H528.213l27.734 85.333H896A85.038 85.038 0 0 0 981.333 896V298.667A85.038 85.038 0 0 0 896 213.333H526.507m-225.28 38.827c46.933 0 86.613 17.067 116.053 46.507l-47.787 43.946c-12.373-12.373-33.706-26.453-68.266-26.453-59.307 0-106.667 48.64-106.667 107.947 0 59.306 47.36 109.226 106.667 109.226 69.12 0 93.866-49.92 98.986-74.666h-98.986v-58.454h162.986c2.134 9.814 2.56 16.64 2.56 29.014 0 98.986-66.56 168.106-165.546 168.106-96 0-173.227-77.226-173.227-173.226 0-96.427 77.227-171.947 173.227-171.947m381.44 174.507v42.666H611.84L625.493 512H768c-11.52 26.027-15.787 49.92-50.773 90.88-17.067-20.053-30.72-37.547-34.56-48.213H640c5.12 18.346 26.453 46.933 52.053 75.946-5.546 5.547-13.226 12.8-20.053 18.774l11.947 35.84c10.666-9.387 21.333-19.2 32-29.014 43.52 45.654 89.6 87.894 89.6 87.894l23.893-25.6s-45.653-44.8-86.613-89.174C769.707 599.467 793.6 563.2 810.667 512h42.666v-42.667h-128v-42.666h-42.666Z"/></svg>
